!!!COM: Bach, Johann Sebastian
!!!CDT: 1685/3//-1750/7/28/
!!!OTL@@DE: Liebster Jesu, wir sind hier
!!!AGN: 4-Part Chorale
!!!SCT: BH 328
!!!SCT: BWV 373
**harm	**root	**kern	**kern	**kern	**kern
!	!	!bass	!tenor	!alto	!soprno
*	*Iorgan	*Iorgan	*Iorgan	*Iorgan	*Iorgan
*M4/4	*M4/4	*M4/4	*M4/4	*M4/4	*M4/4
*met(c)	*met(c)	*met(c)	*met(c)	*met(c)	*met(c)
*MM60	*MM60	*MM60	*MM60	*MM60	*MM60
*k[f#c#]	*k[f#c#]	*k[f#c#]	*k[f#c#]	*k[f#c#]	*k[f#c#]
*D:	*D:	*D:	*D:	*D:	*D:
*>[A,A,B]	*>[A,A,B]	*>[A,A,B]	*>[A,A,B]	*>[A,A,B]	*>[A,A,B]
*>A	*>A	*>A	*>A	*>A	*>A
=1-	=1-	=1-	=1-	=1-	=1-
I	4GG	4DD	8D	4A	4f#
.	.	.	8E	.	.
I	4GG	[4D	4F#	4A	8e
.	.	.	.	.	8d
Vb	4DD	8D]	4E	4A	4e
.	.	8C#	.	.	.
V	4DD	8BB	4E	4c#	4a
.	.	8AA	.	.	.
=2	=2	=2	=2	=2	=2
I	4GG	8D	8F#	4A	4f#
.	.	8E	8G	.	.
Ib	4GG	8F#	4A	8A	4d
.	.	8D	.	8B	.
V;	2DD;	2AA;	2A;	2c#;	2e;
=3	=3	=3	=3	=3	=3
vi	4EE	8BBB	4F#	4B	4d
.	.	4BB	.	.	.
V7c/IV	4GG	.	4F#	4c	4d
.	.	8AA	.	.	.
IV	4CC	8GGG	4G	4B	4d
.	.	4GG	.	.	.
Ib	4GG	.	4D	4A	4d
.	.	8FF#	.	.	.
=4	=4	=4	=4	=4	=4
ii	4AA	4EE	4G	8B	4e
.	.	.	.	8c#y	.
I	4GG	8DD	4A	4d	4f#
.	.	8FF#	.	.	.
ii7b	4AA	8GG	8B	4d	2e
.	.	8EE	8G	.	.
V	4DD	4AA	8E	4c#	.
.	.	.	16A	.	.
.	.	.	16G	.	.
=5	=5	=5	=5	=5	=5
I;	1GG;	1DD;	1F#;	1A;	1d;
*>B	*>B	*>B	*>B	*>B	*>B
!!linebreak: 2
=6:|!	=6:|!	=6:|!	=6:|!	=6:|!	=6:|!
I	4GG	8DD	4D	4F#	4A
.	.	4D	.	.	.
Vb	4DD	.	4E	4E	4A
.	.	8C#	.	.	.
viiob/V	4CC#	4BB	4D	8F#	4B
.	.	.	.	8G#	.
V	4DD	[4AA	4E	4A	4c#
=7	=7	=7	=7	=7	=7
vi7d	4EE	4AA]	4F#	4B	4d
Vb/V	4AA	4GG#	4E	4B	8e
.	.	.	.	.	8d
V	4DD	4AA	8E	4A	8c#
.	.	.	8D	.	8B
V;	4DD;	4AA;	4C#;	4E;	4A;
=8	=8	=8	=8	=8	=8
Ib	4GG	8FF#	4.D	8A	4d
.	.	8DD	.	8F#	.
ii7	8AA	8EE	.	8G	4d
V7b/IV	8GG	8FF#	8C	8A	.
IV	4CC	8GG	8BB	4B	4d
.	.	8AA	8C#	.	.
IV	4CC	8GG	8D	4B	4d
.	.	8FF#	16E	.	.
.	.	.	16F#	.	.
=9	=9	=9	=9	=9	=9
ii	4AA	4EE	4G	8B	4e
.	.	.	.	8c#	.
I	4GG	4DD	4A	[4d	4f#
V	2DD	2AA	4.A	8d]	2e
.	.	.	.	8B	.
.	.	.	.	4c#	.
.	.	.	8G	.	.
=10	=10	=10	=10	=10	=10
I;	1GG;	1DD;	1F#;	1A;	1d;
==	==	==	==	==	==
*-	*-	*-	*-	*-	*-
!!chor2scor: -l 2 -s 0.6 -o %b.pmx
!!!YEC: Copyright 1994, David Huron
!!!YEC: Changes/Additions 2001 by Craig Stuart Sapp
!!!YEN: United States of America
!!!SMA: 371 Bach Chorales, edited by Ludwig Erk, C.F. Peters
!!!PDT: 1850, 1865
!!!ONB: Harmony and Root analysis done manually
